X:1
T:The Lost Boys of East Bay
M:6/8
L:1/8
K:F
 A/2B/2| cdc A2 F/2E/2| DBD C2 C/2C/2| CFG A c3/2 A/2| AGF G2 A/2B/2|\
 cdc| A/2 A3/2 F/2E/2| DBD C2 C| CFG Ac B/2A/2| GFE F2 F/2E/2| D3/2 D/2 DB B3/2 D/2|\
 A A3/2 A/2| c2 A/2A/2| G2 G c3/2 c/2 c| =Bcd c2 A/2_B/2| cdc AA F/2E/2|\
 DBD C2 C| CFG| Ac B/2A/2| GFE F2||
